X: 4
T: Sing We Now of Christmas   [Dm]
C: trad. French 15th century, trad. English 17th-18th century
Z: DW
M: 2/4
L: 1/8
K: Ddor
[|"Dm"da "G"bg | "Dm"a2 f2 | "C"g(g/a/) fe | "Dm"d4 |\
| "Dm"da "G"bg | "Dm"a2 f2 | "C"g(g/a/) fe | "Dm"d4 |\
[|"Dm"f2 ed | "Am"e3 A |
| "Dm"ff ed | "Am"e4 |\
| "Dm"f2 ed | "C"e3 A | "Bb"ff ed | "A7"e4 |\
[|"Dm"da "G"bg | "Dm"a2 f2 | "Bb"gg/a/ "C"fe | "Dm"d4 |]

